projects/canopy/src/assets/pictograms/error-in-browser.svg

<?xml version="1.0" encoding="UTF-8"?>
<svg viewBox="0 0 288 273" version="1.1" xmlns="http://www.w3.org/2000/svg" xmlns:xlink="http://www.w3.org/1999/xlink">
    <g id="Layouts" stroke="none" stroke-width="1" fill="none" fill-rule="evenodd">
        <g id="AN_06.0_AnnuityPageDocuments_Error_MD-" transform="translate(-422.000000, -50.000000)">
            <g id="Group" transform="translate(406.000000, 26.159938)">
                <circle id="Fill" fill="#FFD500" cx="160" cy="180" r="62"></circle>
                <path d="M295.7,24 C300.281679,24.0055101 303.99449,27.7183209 304,32.3 L304,32.3 L304,287.7 C303.99449,292.281679 300.281679,295.99449 295.7,296 L295.7,296 L24.3,296 C19.7183209,295.99449 16.0055101,292.281679 16,287.7 L16,287.7 L16,32.3 C16.0055101,27.7183209 19.7183209,24.0055101 24.3,24 L24.3,24 Z M296,72 L24,72 L24,287.7 C24.0051939,287.863486 24.1365143,287.994806 24.3,288 L24.3,288 L295.7,288 C295.863486,287.994806 295.994806,287.863486 296,287.7 L296,287.7 L296,72 Z M276,264 C278.209139,264 280,265.790861 280,268 C280,270.209139 278.209139,272 276,272 C273.790861,272 272,270.209139 272,268 C272,265.790861 273.790861,264 276,264 Z M244,264 C246.209139,264 248,265.790861 248,268 C248,270.209139 246.209139,272 244,272 C241.790861,272 240,270.209139 240,268 C240,265.790861 241.790861,264 244,264 Z M212,264 C214.209139,264 216,265.790861 216,268 C216,270.209139 214.209139,272 212,272 C209.790861,272 208,270.209139 208,268 C208,265.790861 209.790861,264 212,264 Z M260,248 C262.209139,248 264,249.790861 264,252 C264,254.209139 262.209139,256 260,256 C257.790861,256 256,254.209139 256,252 C256,249.790861 257.790861,248 260,248 Z M228,248 C230.209139,248 232,249.790861 232,252 C232,254.209139 230.209139,256 228,256 C225.790861,256 224,254.209139 224,252 C224,249.790861 225.790861,248 228,248 Z M160,112 C197.555363,112 228,142.444637 228,180 C228,217.555363 197.555363,248 160,248 C122.460631,247.961416 92.0385839,217.539369 92,180 C92,142.444637 122.444637,112 160,112 Z M244,232 C246.209139,232 248,233.790861 248,236 C248,238.209139 246.209139,240 244,240 C241.790861,240 240,238.209139 240,236 C240,233.790861 241.790861,232 244,232 Z M276,232 C278.209139,232 280,233.790861 280,236 C280,238.209139 278.209139,240 276,240 C273.790861,240 272,238.209139 272,236 C272,233.790861 273.790861,232 276,232 Z M160,120 C126.878906,120.038574 100.038574,146.878906 100,180 C100,213.137085 126.862915,240 160,240 C193.137085,240 220,213.137085 220,180 C220,146.862915 193.137085,120 160,120 Z M260,216 C262.209139,216 264,217.790861 264,220 C264,222.209139 262.209139,224 260,224 C257.790861,224 256,222.209139 256,220 C256,217.790861 257.790861,216 260,216 Z M276,200 C278.209139,200 280,201.790861 280,204 C280,206.209139 278.209139,208 276,208 C273.790861,208 272,206.209139 272,204 C272,201.790861 273.790861,200 276,200 Z M160,200 C162.209139,200 164,201.790861 164,204 C164,206.209139 162.209139,208 160,208 C157.790861,208 156,206.209139 156,204 C156,201.790861 157.790861,200 160,200 Z M160,144 C162.142195,144 163.891079,145.683968 163.995105,147.80036 L164,148 L164,188 C164,190.209139 162.209139,192 160,192 C157.857805,192 156.108921,190.316032 156.004895,188.19964 L156,188 L156,148 C156,145.790861 157.790861,144 160,144 Z M295.7,32 L24.3,32 C24.1365143,32.0051939 24.0051939,32.1365143 24,32.3 L24,32.3 L24,64 L296,64 L296,32.3 C295.994806,32.1365143 295.863486,32.0051939 295.7,32 L295.7,32 Z M280.173913,44 C282.287003,44 284,45.790861 284,48 C284,50.1401034 282.392392,51.8876627 280.370803,51.9947952 L280.173913,52 L111.826087,52 C109.712997,52 108,50.209139 108,48 C108,45.8598966 109.607608,44.1123373 111.629197,44.0052048 L111.826087,44 L280.173913,44 Z M72,44 C74.209139,44 76,45.790861 76,48 C76,50.209139 74.209139,52 72,52 C69.790861,52 68,50.209139 68,48 C68,45.790861 69.790861,44 72,44 Z M56,44 C58.209139,44 60,45.790861 60,48 C60,50.209139 58.209139,52 56,52 C53.790861,52 52,50.209139 52,48 C52,45.790861 53.790861,44 56,44 Z M40,44 C42.209139,44 44,45.790861 44,48 C44,50.209139 42.209139,52 40,52 C37.790861,52 36,50.209139 36,48 C36,45.790861 37.790861,44 40,44 Z" id="Outlines" fill="#000000" fill-rule="nonzero"></path>
            </g>
        </g>
    </g>
</svg>

<svg viewBox="0 0 288 273" xmlns="http://www.w3.org/2000/svg"><g transform="translate(-16 -23.84)" fill="none" fill-rule="evenodd"><circle fill="#FFD500" cx="160" cy="180" r="62"/><path d="M295.7 24a8.31 8.31 0 018.3 8.3v255.4a8.31 8.31 0 01-8.3 8.3H24.3a8.31 8.31 0 01-8.3-8.3V32.3a8.31 8.31 0 018.3-8.3zm.3 48H24v215.7a.31.31 0 00.3.3h271.4a.31.31 0 00.3-.3V72zm-20 192a4 4 0 110 8 4 4 0 010-8zm-32 0a4 4 0 110 8 4 4 0 010-8zm-32 0a4 4 0 110 8 4 4 0 010-8zm48-16a4 4 0 110 8 4 4 0 010-8zm-32 0a4 4 0 110 8 4 4 0 010-8zm-68-136c37.555 0 68 30.445 68 68s-30.445 68-68 68c-37.54-.039-67.961-30.46-68-68 0-37.555 30.445-68 68-68zm84 120a4 4 0 110 8 4 4 0 010-8zm32 0a4 4 0 110 8 4 4 0 010-8zM160 120c-33.121.039-59.961 26.879-60 60 0 33.137 26.863 60 60 60s60-26.863 60-60-26.863-60-60-60zm100 96a4 4 0 110 8 4 4 0 010-8zm16-16a4 4 0 110 8 4 4 0 010-8zm-116 0a4 4 0 110 8 4 4 0 010-8zm0-56a4 4 0 013.995 3.8l.005.2v40a4 4 0 01-7.995.2L156 188v-40a4 4 0 014-4zM295.7 32H24.3a.31.31 0 00-.3.3V64h272V32.3a.31.31 0 00-.3-.3zm-15.526 12c2.113 0 3.826 1.79 3.826 4 0 2.14-1.608 3.888-3.63 3.995l-.196.005H111.826c-2.113 0-3.826-1.79-3.826-4 0-2.14 1.608-3.888 3.63-3.995l.196-.005h168.348zM72 44a4 4 0 110 8 4 4 0 010-8zm-16 0a4 4 0 110 8 4 4 0 010-8zm-16 0a4 4 0 110 8 4 4 0 010-8z" fill="#000" fill-rule="nonzero"/></g></svg>
